static/logos/apple-glyph-white.svg

<svg width="58" height="64" viewBox="0 0 58 64" fill="none" xmlns="http://www.w3.org/2000/svg">
<path d="M47.059 33.7089C47.0306 28.4824 49.3946 24.5376 54.1796 21.6324C51.5023 17.8015 47.4578 15.6938 42.1173 15.2808C37.0617 14.8821 31.5361 18.2288 29.5139 18.2288C27.3777 18.2288 22.4787 15.4232 18.6336 15.4232C10.687 15.5514 2.24194 21.7606 2.24194 34.3925C2.24194 38.1237 2.92552 41.9783 4.29268 45.9564C6.11555 51.1829 12.695 64 19.5593 63.7864C23.148 63.7009 25.683 61.2372 30.3541 61.2372C34.8828 61.2372 37.2326 63.7864 41.2344 63.7864C48.1556 63.6867 54.1084 52.0374 55.8459 46.7966C46.5606 42.4246 47.059 33.9795 47.059 33.7089ZM38.9985 10.3249C42.8864 5.71073 42.5303 1.50957 42.4164 0C38.9843 0.199377 35.011 2.33556 32.7466 4.97018C30.2544 7.78994 28.7876 11.279 29.1009 15.2096C32.8178 15.4944 36.2072 13.5861 38.9985 10.3249Z" fill="white"/>
</svg>

<svg xmlns="http://www.w3.org/2000/svg" width="58" height="64" fill="none"><path fill="#fff" d="M47.059 33.709c-.028-5.227 2.336-9.171 7.12-12.077-2.677-3.83-6.721-5.938-12.062-6.351-5.055-.399-10.58 2.948-12.603 2.948-2.136 0-7.035-2.806-10.88-2.806-7.947.128-16.392 6.338-16.392 18.97q0 5.596 2.05 11.563C6.117 51.183 12.696 64 19.56 63.786c3.589-.085 6.124-2.549 10.795-2.549 4.529 0 6.879 2.55 10.88 2.55 6.922-.1 12.874-11.75 14.612-16.99-9.285-4.372-8.787-12.817-8.787-13.088m-8.06-23.384C42.886 5.71 42.53 1.51 42.416 0c-3.432.2-7.405 2.336-9.67 4.97-2.492 2.82-3.958 6.309-3.645 10.24 3.717.284 7.106-1.624 9.898-4.885"/></svg>
